X: 1365
T: Mevsimler Yas Tutup...
C: Yıldırım Gürses
O: Turkey
F: http://compmusic.upf.edu/node/140
N: muhayyerkurdi--sarki--sofyan--mevsimler_yas--yildirim_gurses
N: makam= muhayyerkurdi
N: form= sarki
N: usul= sofyan = 4/4
M: 4/4
L: 1/16
K: C _B   
Q: 1/4=108
%%MIDI tuningsystem comma53
z4 f4 e6c2  | e6d2 d8  | z4 e4 d6=B2  | \
w:   |   |   | 
d6c2 c8  | z4 d4 c6A2  | c2B2 B8 F2c2  | 
w:   |   |   | 
B4 F2c2 B4 E2B2  | A8 ABcd efga  | a4 b4 a4 ^f4  | \
w:   |   |   | 
a6g2 g8  | 
w:   | 
z4 a4 g4 e4  | g6f2 f8  | z4 g4 f4 d4  | \
w:   |   |   | 
f2e2 e8 A2f2  | e4 A2f2 e4 g2f2  | 
w:   |   | 
e4 d4 c4 B4  | A4 f4 e6c2  | e6d2 d8  | \
w:   |   |   | 
z4 e4 d6=B2  | d6c2 c8  | z4 d4 c6A2  | 
w:   |   |   | 
c2B2 B8 F2c2  | B4 F2c2 B4 E2B2  | A16  | \
w:   |   |   | 
z4 A2B2 c4 d3B  | B16  | z2c4e2 z2c4B2  | 
w:  Mev sim ler  yas  tu  |  tup   |  çöl ler  ağ la  | 
A4 F8 c2B2  | A2A4B2 c8  | z2d4e2 f8  | \
w:  sın   SAZ  |  *  Â hım la   |  in le yen   | 
z2e4c2 z2d4B2  | A16  | z4 A2B2 c4 d3B  | 
w:  tel ler  ağ la  |  sın    |  Mev sim ler  yas  tu  | 
B16  | z2c4e2 z2c4B2  | A4 F8 c2B2  | A2A4B2 c8  | \
w:  tup   |  çöl ler  ağ la  |  sın   SAZ  |  *  Â hım la   | 
z2d4e2 f8  | z2g4g2 c'4 b4  | 
w:  in le yen   |  tel ler  ağ la  | 
a16  | z2b4b2 b4 g4  | b4 b12  | z2a4a2 a2f6  | a16  | \
w:  sın    |  Ma dem  ki  sen   |  yok sun   |  şim di  ya nım  |  da    | 
f4 e4 d8  | z4 e2c2 c8  | 
w:  Ley lak lar   |  dö kü lüp   | 
z2c4e2 z2c4B2  | A8 B2c2 d2e2  | f4 e4 d8  | \
w:  gül ler  ağ la  |  sın   SAZ  |  Ley lak lar   | 
z4 e2c2 c8  | z2c4e2 z2c4B2  | 
w:  dö kü lüp   |  gül ler  ağ la  | 
A16  | z2g4a2 a8  | g2a6 bab6  | g4 a4 c'2b4a2  | \
w:  sın    |  Sev gi lim   |  bu  yer den   |  git tin  gi de  | 
bab6 g2a2 b4  | 
w:  li  *  *  SAZ  | 
z4 g2b2 c'4 c'4  | c'2c'6 c'4 bab2  | \
w:  Il gıt  ıl gıt   |  e ser   | 
z2b4c'2 d'6b2  | a16  | z4 g2a2 bc'ba b4  | 
w:  sev da nın  ye  |  li   |  Şu  ök süz   | 
z2f4g2 abag a4  | z2e4d2 c4 dedc  | c16  | \
w:  ru hu mun   |  sen sin_ e me  |  li    | 
f4 e4 d8  | z4 e2c2 c8  | 
w:  Ley lak lar   |  dö kü lüp   | 
z2c4e2 z2c4B2  | A8 B2c2 d2e2  | f4 e4 d8  | \
w:  gül ler  ağ la  |  sın   SAZ  |  Ley lak lar   | 
z4 e2c2 c8  | z2c4e2 z2c4B2  | 
w:  dö kü lüp   |  gül ler  ağ la  | 
A16  | z4 f4 e6c2  | e6d2 d8  | z4 e4 d6=B2  | \
w:  sın    |   |   |   | 
d6c2 c8  | z4 d4 c6A2  | c2B2 B8 F2c2  | 
w:   |   |   | 
B4 F2c2 B4 E2B2  | A8 ABcd efga  | a4 b4 a4 ^f4  | \
w:   |   |   | 
a6g2 g8  | 
w:   | 
z4 a4 g4 e4  | g6f2 f8  | z4 g4 f4 d4  | \
w:   |   |   | 
f2e2 e8 A2f2  | e4 A2f2 e4 g2f2  | 
w:   |   | 
e4 d4 c4 B4  | A4 f4 e6c2  | e6d2 d8  | \
w:   |   |   | 
z4 e4 d6=B2  | d6c2 c8  | z4 d4 c6A2  | 
w:   |   |   | 
c2B2 B8 F2c2  | B4 F2c2 B4 E2B2  | A16  | \
w:   |   |   | 
z4 A2B2 c4 d2B2  | B16  | z2c4e2 z2c4B2  | 
w:   |   |   | 
A4 F8 c2B2  | A4 A2B2 c8  | z2d4e2 f8  | \
w:   |   |   | 
z4 e2c2 z4 d2B2  | A16  | z4 A2B2 c4 d2B2  | 
w:   |   |   | 
B16  | z2c4e2 z2c4B2  | A4 F8 c2B2  | A4 A2B2 c8  | \
w:   |   |   |   | 
z2d4e2 f8  | z4 g2g2 z4 c'2b2  | 
w:   |   | 
a16  | f4 e4 d8  | z4 e2c2 c8  | z2c4e2 z2c4B2  | \
w:   |   |   |   | 
A8 B2c2 d2e2  | f4 e4 d8  | 
w:   |   | 
z4 e2c2 c8  | z2c4e2 z2c4B2  | A16  | z2b4b2 b4 g4  | \
w:   |   |   |  Ma dem  ki  sen   | 
b4 b12  | z2a4a2 a2f6  | 
w:  yok sun   |  şim di  ya nım  | 
a16  | f4 e4 d8  | z4 e2c2 c8  | z2c4e2 z2c4B2  | \
w:  da    |  Ley lak lar   |  dö kü lüp   |  gül ler  ağ la  | 
A8 B2c2 d2e2  | f4 e4 d8  | 
w:  sın   SAZ  |  Ley lak lar   | 
z4 e2c2 c8  | z2c4e2 z2c4B2  | A16  | z2g4a2 a8  | \
w:  dö kü lüp   |  gül ler  ağ la  |  sın    |  Sev gi lim   | 
g2a6 bab6  | g4 a4 c'2b4a2  | 
w:  bu  yer den   |  git tin  gi de  | 
bab6 g2a2 b4  | z4 g2b2 c'4 c'4  | c'2c'6 c'4 bab2  | \
w:  li  *  *  SAZ  |  Il gıt  ıl gıt   |  e ser   | 
z2b4c'2 d'6b2  | 
w:  sev da nın  ye  | 
a16  | z4 g2a2 bc'ba b4  | z2f4g2 abag a4  | \
w:  li   |  Şu  ök süz   |  ru hu mun   | 
z2e4d2 c4 dedc  | 
w:  sen sin_ e me  | 
c16  | f4 e4 d8  | z4 e2c2 c8  | z2c4e2 z2c4B2  | \
w:  li    |  Ley lak lar   |  dö kü lüp   |  gül ler  ağ la  | 
A8 B2c2 d2e2  | f4 e4 d8  | 
w:  sın   SAZ  |  Ley lak lar   | 
z4 e2c2 c8  | z2c4e2 z2c4B2  | A16  | |


